!! 00000] TT[00
!! NN
!!!OTL: Hongri zhaozai dong shan shang
!!!ARE: Asia, China,ÿHubei, Wufeng
!! Ethnic Group: Han
!! I, 360
!!!SCT: C0101
!!!YEM: Copyright 1995, estate of Helmut Schaffrath.
**kern
*ICvox
*Ivox
!! Mixed meters:  2/4; 3/4
*M2/4
*k[]
*C:
{8g
8g
16a
16cc
8a
=1
4.g
8a
=2
8gg
8gg
16ee
16gg
8ee
=3
2dd}
=4
{16dd
16ee
16gg
16gg
16ee
16gg
8ee
=5
8.dd
16ee
16dd
16ee
8a
=6
8cc
8cc
16a
16cc
8a
=7
2g}
=8
{8g
8g
16a
16cc
8a
=9
*M3/4
8dd
16dd
16cc
4.dd
16dd
16ee
=10
*M2/4
8cc
4dd
16cc
16a
=11
2g}
=12
{8dd
16dd
16cc
16a
16cc
8a
=13
2g
=14
8gg
8gg
8cc
16gg
16ee
=15
4.dd}
{16ee
16ee
=16
16dd
16ee
8gg
16ee
16gg
8ee
=17
8.dd
16ee
16dd
16ee
8a
=18
8cc
8cc
16a
16cc
8a
=19
2g}
==
!!!AGN: Shange, Wujuzi. Xin minge
!! 1 Strophe besteht aus fuenf Saetzen. Neues Volkslied
!!    Einige Verzierungen.
!!!ONB: ESAC (Essen Associative Code) Database: CHINA
!!!AMT: irregular
!!!AIN: vox
!!!EED: Helmut Schaffrath
!!!EEV: 1.0
*-
